src/images/stack-api.svg

<svg xmlns="http://www.w3.org/2000/svg" width="179" height="179" fill="none" viewBox="0 0 179 179"><rect width="179" height="179" fill="#fff"/><path fill="#454545" fill-rule="evenodd" d="M30.72 86.9101C30.72 54.0201 57.01 27.3501 89.45 27.3501C121.89 27.3501 148.18 54.0201 148.18 86.9101C148.18 119.8 121.88 146.47 89.45 146.47C57.02 146.47 30.72 119.8 30.72 86.9101Z" clip-rule="evenodd"/><path fill="#fff" fill-rule="evenodd" d="M52 83C51.9859 83.675 51.7926 84.3342 51.44 84.91C51.0722 85.5513 50.554 86.0935 49.93 86.49C50.2276 86.6895 50.5026 86.9208 50.75 87.18C50.9915 87.4398 51.2091 87.721 51.4 88.02C51.5806 88.3057 51.7282 88.611 51.84 88.93C51.9456 89.2287 51.9997 89.5432 52 89.86V98.08C51.9866 98.2101 52.0061 98.3415 52.0568 98.462C52.1075 98.5826 52.1877 98.6886 52.29 98.77C52.5087 98.9052 52.7631 98.9715 53.02 98.96C53.2417 98.9246 53.4593 98.8676 53.67 98.79C54.1551 98.6408 54.6323 98.4673 55.1 98.27V101.49C54.8552 101.639 54.6015 101.773 54.34 101.89C54.083 102.006 53.8191 102.106 53.55 102.19C53.29 102.27 53.05 102.33 52.83 102.38C52.6321 102.417 52.4313 102.437 52.23 102.44C51.6056 102.446 50.9844 102.351 50.39 102.16C49.8795 101.987 49.4098 101.712 49.01 101.35C48.6331 101.013 48.336 100.596 48.14 100.13C47.9351 99.6358 47.8331 99.105 47.84 98.57V90.78C47.8379 90.499 47.8178 90.2185 47.78 89.94C47.7493 89.6438 47.6855 89.352 47.59 89.07C47.4997 88.8192 47.3564 88.5907 47.17 88.4C46.978 88.2201 46.723 88.1231 46.46 88.13H44.9V84.74H46.47C46.7329 84.7469 46.9881 84.6499 47.18 84.47C47.3709 84.279 47.5146 84.0462 47.6 83.79C47.6948 83.5112 47.7585 83.2228 47.79 82.93C47.8274 82.6549 47.8475 82.3776 47.85 82.1V74.27C47.846 73.745 47.9481 73.2246 48.15 72.74C48.3457 72.2679 48.6427 71.8447 49.02 71.5C49.4242 71.1421 49.8924 70.8638 50.4 70.68C50.9908 70.4721 51.6137 70.3705 52.24 70.38C52.4416 70.3869 52.6423 70.4103 52.84 70.45C53.06 70.5 53.3 70.57 53.56 70.65C53.8308 70.7332 54.0949 70.8369 54.35 70.96C54.6116 71.0808 54.8654 71.2177 55.11 71.37V74.71C54.51 74.42 54.03 74.21 53.68 74.07C53.4717 73.9764 53.2537 73.9059 53.03 73.86C52.7688 73.8482 52.5112 73.9258 52.3 74.08C52.2002 74.1658 52.122 74.2739 52.0716 74.3954C52.0212 74.517 52.0001 74.6488 52.01 74.78L52 83Z" clip-rule="evenodd"/><path fill="#fff" fill-rule="evenodd" d="M78.5999 96.9401C78.3123 97.1223 78.0115 97.2828 77.7 97.4201C77.4755 97.5264 77.241 97.6102 77 97.6701C76.8262 97.7154 76.6489 97.7455 76.4699 97.7601H76.0999C75.7027 97.7625 75.3087 97.6877 74.94 97.5401C74.5982 97.3954 74.2863 97.1886 74.02 96.9301C73.7551 96.6621 73.5235 96.3633 73.33 96.04C73.1379 95.6987 72.9772 95.3405 72.8499 94.97C72.3844 95.4631 71.883 95.9211 71.3499 96.3401C70.9201 96.675 70.4539 96.9601 69.96 97.1901C69.5224 97.3996 69.058 97.5476 68.58 97.6301C68.1086 97.7197 67.6297 97.7633 67.15 97.7601C66.3837 97.7642 65.6224 97.6356 64.9 97.3801C64.2265 97.1468 63.6074 96.7794 63.08 96.3001C62.5553 95.8338 62.1359 95.2611 61.8499 94.6201C61.5438 93.931 61.3904 93.184 61.4 92.4301C61.3863 91.798 61.549 91.1747 61.8699 90.6301C62.19 90.1141 62.6078 89.6657 63.0999 89.3101C63.6397 88.9057 64.2275 88.5698 64.8499 88.3101C65.4999 88.0401 66.1699 87.7901 66.8499 87.5801L68.8499 86.9501C69.4426 86.7728 70.0237 86.5591 70.59 86.3101C71.0409 86.1282 71.4596 85.875 71.83 85.5601C71.9786 85.4396 72.098 85.287 72.1794 85.1138C72.2608 84.9407 72.302 84.7514 72.2999 84.5601C72.3229 84.2016 72.2165 83.8467 71.9999 83.5601C71.8007 83.3052 71.5481 83.0971 71.26 82.9501C70.9464 82.7831 70.6092 82.665 70.26 82.6C69.9006 82.5325 69.5356 82.4991 69.1699 82.5001C68.8114 82.5015 68.4548 82.552 68.1099 82.6501C67.7511 82.7404 67.412 82.8964 67.1099 83.1101C66.8164 83.3342 66.5687 83.6126 66.38 83.9301C66.1701 84.2995 66.0374 84.7078 65.9899 85.1301H61.78C61.8117 84.2233 62.0486 83.3355 62.473 82.5336C62.8973 81.7316 63.4981 81.0363 64.2299 80.5001C64.9247 79.992 65.7032 79.6095 66.53 79.3701C67.3755 79.1276 68.2504 79.0031 69.13 79.0001C70.0594 78.997 70.9859 79.1044 71.89 79.3201C72.7185 79.5071 73.5051 79.8462 74.21 80.3201C74.9196 80.7884 75.496 81.4324 75.8833 82.1893C76.2705 82.9463 76.4554 83.7906 76.4199 84.6401V93.35C76.4171 93.5871 76.4987 93.8175 76.65 94.0001C76.7306 94.0981 76.8335 94.1755 76.95 94.226C77.0665 94.2764 77.1933 94.2983 77.32 94.29H77.69C78.0023 94.2338 78.301 94.1185 78.57 93.9501L78.5999 96.9401ZM72.2899 88.8101C71.9542 88.9959 71.5986 89.1435 71.2299 89.2501L69.82 89.6401C69.31 89.7801 68.8199 89.9201 68.2899 90.0801C67.8133 90.2196 67.3485 90.3968 66.9 90.6101C66.527 90.7938 66.1886 91.0408 65.9 91.3401C65.7697 91.4715 65.6671 91.6277 65.5983 91.7994C65.5296 91.9712 65.4962 92.1551 65.4999 92.3401C65.4917 92.6595 65.5531 92.9768 65.6799 93.2701C65.7873 93.5156 65.9479 93.7341 66.15 93.91C66.3441 94.0724 66.5684 94.1948 66.8099 94.2701C67.0492 94.3457 67.299 94.3828 67.5499 94.3801C68.4393 94.3568 69.302 94.0715 70.03 93.5601C70.9634 92.9145 71.7393 92.0669 72.2999 91.0801L72.2899 88.8101Z" clip-rule="evenodd"/><path fill="#fff" fill-rule="evenodd" d="M85.77 79.4599H89.93V81.4599C90.1799 81.0523 90.4901 80.6847 90.85 80.3699C91.1751 80.086 91.5346 79.8441 91.92 79.6499C92.2786 79.4727 92.6583 79.3416 93.05 79.2599C93.4046 79.1796 93.7665 79.136 94.13 79.1299C95.2106 79.1165 96.2782 79.3671 97.24 79.8599C98.1531 80.3489 98.9483 81.0315 99.57 81.8599C100.243 82.7609 100.744 83.7778 101.05 84.8599C101.397 86.0384 101.569 87.2614 101.56 88.4899C101.568 89.7175 101.416 90.941 101.11 92.1299C100.842 93.2022 100.385 94.2181 99.76 95.1299C99.1764 95.9556 98.4142 96.6392 97.53 97.1299C96.5833 97.6353 95.523 97.89 94.45 97.8699C94.031 97.8675 93.6142 97.8103 93.21 97.6999C92.3311 97.4678 91.5236 97.0211 90.86 96.3999C90.5078 96.0674 90.1957 95.6948 89.93 95.2899V104.2H85.77V79.4599ZM89.93 88.6299C89.9511 89.3679 90.0482 90.1018 90.22 90.8199C90.3709 91.4518 90.6207 92.0559 90.96 92.6099C91.2486 93.0905 91.6374 93.5032 92.1 93.8199C92.559 94.1145 93.0946 94.2675 93.64 94.2599C94.2084 94.2669 94.7657 94.1031 95.24 93.7899C95.7261 93.4644 96.1328 93.0339 96.43 92.5299C96.7751 91.9538 97.025 91.3257 97.17 90.6699C97.4899 89.1633 97.4899 87.6064 97.17 86.0999C97.025 85.4409 96.7752 84.8096 96.43 84.2299C96.1387 83.7216 95.7308 83.2897 95.24 82.9699C94.7648 82.6596 94.2074 82.4994 93.64 82.5099C93.082 82.4991 92.534 82.6596 92.07 82.9699C91.5877 83.2936 91.1872 83.7249 90.9 84.2299C90.5658 84.8127 90.323 85.4434 90.18 86.0999C90.0124 86.8483 89.9285 87.613 89.93 88.3799V88.6299Z" clip-rule="evenodd"/><path fill="#fff" fill-rule="evenodd" d="M114.28 72.8201V77.0001H110.12V72.85L114.28 72.8201ZM114.28 79.4601V97.4601H110.12V79.4601H114.28Z" clip-rule="evenodd"/><path fill="#fff" fill-rule="evenodd" d="M124.63 89.83C124.64 89.1776 124.83 88.5407 125.18 87.99C125.548 87.3788 126.047 86.8564 126.64 86.46C126.03 86.0592 125.526 85.5172 125.17 84.88C124.827 84.3009 124.641 83.6427 124.63 82.97V74.75C124.641 74.6177 124.62 74.4846 124.567 74.3625C124.515 74.2405 124.434 74.1331 124.33 74.05C124.108 73.8943 123.841 73.8169 123.57 73.83C122.838 74.0444 122.128 74.329 121.45 74.68V71.34C121.939 71.036 122.463 70.7909 123.01 70.61C123.444 70.456 123.899 70.3684 124.36 70.35C124.989 70.3405 125.616 70.4421 126.21 70.65C126.719 70.8316 127.187 71.11 127.59 71.47C127.967 71.8146 128.264 72.238 128.46 72.71C128.662 73.1946 128.764 73.715 128.76 74.24V82.07C128.742 82.3464 128.742 82.6236 128.76 82.9C128.795 83.1932 128.862 83.4816 128.96 83.76C129.049 84.0168 129.196 84.2496 129.39 84.44C129.487 84.5315 129.602 84.6025 129.728 84.6489C129.853 84.6953 129.986 84.7161 130.12 84.71H131.67V88.1H130.12C129.986 88.0939 129.853 88.1147 129.728 88.1611C129.602 88.2074 129.487 88.2785 129.39 88.37C129.2 88.5601 129.054 88.7885 128.96 89.04C128.861 89.3216 128.794 89.6134 128.76 89.91C128.742 90.1897 128.742 90.4703 128.76 90.75V98.54C128.767 99.0749 128.665 99.6057 128.46 100.1C128.264 100.566 127.967 100.983 127.59 101.32C127.192 101.684 126.722 101.96 126.21 102.13C125.612 102.321 124.988 102.416 124.36 102.41C123.9 102.396 123.445 102.311 123.01 102.16C122.465 101.986 121.942 101.751 121.45 101.46V98.24L122.93 98.75C123.138 98.8276 123.352 98.8878 123.57 98.93C123.836 98.9426 124.101 98.8765 124.33 98.74C124.436 98.6609 124.519 98.5557 124.571 98.4347C124.624 98.3138 124.644 98.1811 124.63 98.05V89.83Z" clip-rule="evenodd"/></svg>

<svg fill="none" viewBox="0 0 179 179"><path fill="#fff" d="M0 0h179v179H0z"/><path fill="#454545" fill-rule="evenodd" d="M30.72 86.91c0-32.89 26.29-59.56 58.73-59.56s58.73 26.67 58.73 59.56-26.3 59.56-58.73 59.56c-32.43 0-58.73-26.67-58.73-59.56z" clip-rule="evenodd"/><path fill="#fff" fill-rule="evenodd" d="M52 83a3.81 3.81 0 01-.56 1.91 4.56 4.56 0 01-1.51 1.58c.298.2.573.43.82.69.242.26.46.541.65.84.18.286.328.591.44.91.106.299.16.613.16.93v8.22a.78.78 0 00.29.69c.219.135.473.202.73.19a3.38 3.38 0 00.65-.17c.485-.15.962-.323 1.43-.52v3.22a6.964 6.964 0 01-1.55.7c-.26.08-.5.14-.72.19a3.553 3.553 0 01-.6.06 5.832 5.832 0 01-1.84-.28 3.938 3.938 0 01-1.38-.81 3.41 3.41 0 01-.87-1.22 3.94 3.94 0 01-.3-1.56v-7.79a6.612 6.612 0 00-.06-.84 3.997 3.997 0 00-.19-.87 1.86 1.86 0 00-.42-.67 1 1 0 00-.71-.27H44.9v-3.39h1.57a1 1 0 00.71-.27 1.74 1.74 0 00.42-.68 4 4 0 00.19-.86 6.77 6.77 0 00.06-.83v-7.83a3.901 3.901 0 01.3-1.53 3.49 3.49 0 01.87-1.24 4.28 4.28 0 011.38-.82 5.3 5.3 0 011.84-.3c.202.007.402.03.6.07.22.05.46.12.72.2.27.083.535.187.79.31.262.12.515.258.76.41v3.34c-.6-.29-1.08-.5-1.43-.64a3.112 3.112 0 00-.65-.21 1.15 1.15 0 00-.73.22.84.84 0 00-.29.7L52 83zm26.6 13.94a6.826 6.826 0 01-.9.48 3.749 3.749 0 01-1.23.34h-.37a3.071 3.071 0 01-1.16-.22 3 3 0 01-.92-.61 4.698 4.698 0 01-.69-.89 6.464 6.464 0 01-.48-1.07 13.8 13.8 0 01-1.5 1.37 7.22 7.22 0 01-1.39.85 5.24 5.24 0 01-1.38.44c-.471.09-.95.133-1.43.13a6.642 6.642 0 01-2.25-.38 5.272 5.272 0 01-1.82-1.08 4.941 4.941 0 01-1.23-1.68 5.23 5.23 0 01-.45-2.19 3.4 3.4 0 01.47-1.8c.32-.516.738-.964 1.23-1.32a8.159 8.159 0 011.75-1c.65-.27 1.32-.52 2-.73l2-.63a15.011 15.011 0 001.74-.64 4.54 4.54 0 001.24-.75 1.27 1.27 0 00.47-1 1.5 1.5 0 00-.3-1 2.219 2.219 0 00-.74-.61 3.484 3.484 0 00-1-.35 5.82 5.82 0 00-1.09-.1 3.93 3.93 0 00-1.06.15 3 3 0 00-1 .46 2.888 2.888 0 00-.73.82 3.14 3.14 0 00-.39 1.2h-4.21a5.999 5.999 0 012.45-4.63 7.369 7.369 0 012.3-1.13 9.549 9.549 0 012.6-.37 11.71 11.71 0 012.76.32 6.869 6.869 0 012.32 1 4.93 4.93 0 012.21 4.32v8.71a1 1 0 00.23.65.8.8 0 00.67.29h.37a2.49 2.49 0 00.88-.34l.03 2.99zm-6.31-8.13a5.133 5.133 0 01-1.06.44l-1.41.39c-.51.14-1 .28-1.53.44-.477.14-.942.317-1.39.53-.373.184-.711.43-1 .73a1.383 1.383 0 00-.4 1c-.008.32.053.637.18.93.107.246.268.464.47.64.194.162.418.285.66.36.24.076.489.113.74.11a4.52 4.52 0 002.48-.82 7.55 7.55 0 002.27-2.48l-.01-2.27zm13.48-9.35h4.16v2c.25-.408.56-.775.92-1.09a5.15 5.15 0 011.07-.72 4.732 4.732 0 011.13-.39c.355-.08.716-.124 1.08-.13a6.64 6.64 0 013.11.73 7.11 7.11 0 012.33 2 9.191 9.191 0 011.48 3c.347 1.178.519 2.401.51 3.63a14.232 14.232 0 01-.45 3.64 9.29 9.29 0 01-1.35 3 6.73 6.73 0 01-2.23 2 6.29 6.29 0 01-3.08.74 4.81 4.81 0 01-1.24-.17 5.49 5.49 0 01-2.35-1.3 6.218 6.218 0 01-.93-1.11v8.91h-4.16V79.46zm4.16 9.17c.021.738.118 1.472.29 2.19.15.632.4 1.236.74 1.79.289.48.677.893 1.14 1.21a2.78 2.78 0 001.54.44 2.84 2.84 0 001.6-.47 3.901 3.901 0 001.19-1.26 6.242 6.242 0 00.74-1.86 11 11 0 000-4.57 6.301 6.301 0 00-.74-1.87 3.7 3.7 0 00-1.19-1.26 2.83 2.83 0 00-1.6-.46 2.73 2.73 0 00-1.57.46 3.75 3.75 0 00-1.17 1.26 6.57 6.57 0 00-.72 1.87 10.34 10.34 0 00-.25 2.28v.25zm24.35-15.81V77h-4.16v-4.15l4.16-.03zm0 6.64v18h-4.16v-18h4.16zm10.35 10.37c.01-.652.2-1.29.55-1.84a4.85 4.85 0 011.46-1.53 4.54 4.54 0 01-1.47-1.58 3.872 3.872 0 01-.54-1.91v-8.22a.805.805 0 00-.3-.7 1.22 1.22 0 00-.76-.22c-.732.214-1.442.499-2.12.85v-3.34a7.292 7.292 0 011.56-.73 4.583 4.583 0 011.35-.26 5.358 5.358 0 011.85.3c.509.182.977.46 1.38.82a3.5 3.5 0 01.87 1.24 3.9 3.9 0 01.3 1.53v7.83a6.385 6.385 0 000 .83c.035.293.102.582.2.86.089.257.236.49.43.68a.992.992 0 00.73.27h1.55v3.39h-1.55a.995.995 0 00-.73.27 1.87 1.87 0 00-.43.67 3.995 3.995 0 00-.2.87 6.54 6.54 0 000 .84v7.79a3.938 3.938 0 01-.3 1.56 3.409 3.409 0 01-.87 1.22c-.398.364-.868.64-1.38.81a5.894 5.894 0 01-1.85.28 4.538 4.538 0 01-1.35-.25 7.611 7.611 0 01-1.56-.7v-3.22l1.48.51c.208.078.422.138.64.18a1.36 1.36 0 00.76-.19.758.758 0 00.3-.69v-8.22z" clip-rule="evenodd"/></svg>
